X: 39768
T: Thank God We're Surrounded By Water
R: jig
M: 6/8
K: Gmajor
DGG GFG|Add d2e|fef ded|cAG AGF|D2G GFG|Add d2g|fed cAF|AGF GFE|
DGG GFG|ABc d2e|faf ded|cAG FGA|BAB BAG|ABc d2f|fed cAF|AGF GBd||
gdg gdg|gdg bag|fef ded|cAG F2g|gdg gdg|gdg bag|fed cAF|AGF GBd|
gdg gdg|gdg a2g|faf ded|cAG FGA|~B2B BAG|ABc d2e|fed cAF|AGF G2F||

